assets/img/dark/ic-licensed-regulated.svg

<?xml version="1.0" encoding="UTF-8"?>
<svg width="96px" height="96px" viewBox="0 0 96 96" version="1.1" xmlns="http://www.w3.org/2000/svg" xmlns:xlink="http://www.w3.org/1999/xlink">
    <!-- Generator: Sketch 46.2 (44496) - http://www.bohemiancoding.com/sketch -->
    <title>Artboard 2</title>
    <desc>Created with Sketch.</desc>
    <defs>
        <path d="M3,0 L40.7536422,0 L40.7536422,-2.66453526e-15 C41.5491789,-4.93040839e-15 42.3121419,0.315981133 42.8747323,0.878449424 L59.1210901,17.1212809 L59.1210901,17.1212809 C59.6838401,17.6839087 60,18.4470691 60,19.2428314 L60,78 L60,78 C60,79.6568542 58.6568542,81 57,81 L3,81 L3,81 C1.34314575,81 8.29660816e-15,79.6568542 0,78 L0,3 L4.4408921e-16,3 C2.41183085e-16,1.34314575 1.34314575,3.04359188e-16 3,0 Z" id="path-1"></path>
        <circle id="path-3" cx="12" cy="12" r="12"></circle>
        <polygon id="path-4" points="6 15 18 15 18 36 12 30 6 36"></polygon>
    </defs>
    <g id="Page-1" stroke="none" stroke-width="1" fill="none" fill-rule="evenodd">
        <g id="Artboard-2">
            <g id="Group">
                <g id="Group-3" transform="translate(18.000000, 0.000000)">
                    <mask id="mask-2" fill="white">
                        <use xlink:href="#path-1"></use>
                    </mask>
                    <g id="Rectangle">
                        <use fill="#FFFFFF" fill-rule="evenodd" xlink:href="#path-1"></use>
                        <path stroke="#FFFFFF" stroke-width="3" d="M3,1.5 C2.17157288,1.5 1.5,2.17157288 1.5,3 L1.5,78 C1.5,78.8284271 2.17157288,79.5 3,79.5 L57,79.5 C57.8284271,79.5 58.5,78.8284271 58.5,78 L58.5,19.2428314 C58.5,18.8449503 58.34192,18.4633701 58.060545,18.1820561 L41.8141873,1.93922471 C41.5328921,1.65799057 41.1514106,1.5 40.7536422,1.5 L3,1.5 Z"></path>
                    </g>
                    <rect id="Rectangle-3" fill="#DEDEDE" mask="url(#mask-2)" x="9" y="24" width="42" height="3" rx="1.5"></rect>
                    <rect id="Rectangle-3-Copy-2" fill="#DEDEDE" mask="url(#mask-2)" x="9" y="15" width="27" height="3" rx="1.5"></rect>
                    <rect id="Rectangle-3-Copy" fill="#DEDEDE" mask="url(#mask-2)" x="9" y="33" width="42" height="3" rx="1.5"></rect>
                    <rect id="Rectangle-3-Copy-3" fill="#DEDEDE" mask="url(#mask-2)" x="9" y="42" width="42" height="3" rx="1.5"></rect>
                    <rect id="Rectangle-3-Copy-4" fill="#DEDEDE" mask="url(#mask-2)" x="9" y="51" width="42" height="3" rx="1.5"></rect>
                    <path d="M42,0 L60,18 L45,18 L45,18 C43.3431458,18 42,16.6568542 42,15 L42,0 Z" id="Rectangle-4" fill="#DEDEDE" mask="url(#mask-2)"></path>
                </g>
                <g id="Group-2" transform="translate(36.000000, 60.000000)">
                    <g id="Oval">
                        <use fill="#E98024" fill-rule="evenodd" xlink:href="#path-3"></use>
                        <circle stroke="#E98024" stroke-width="3" cx="12" cy="12" r="10.5"></circle>
                    </g>
                    <g id="Rectangle-2">
                        <use fill="#E98024" fill-rule="evenodd" xlink:href="#path-4"></use>
                        <path stroke="#E98024" stroke-width="3" d="M7.5,16.5 L7.5,32.3786797 L12,27.8786797 L16.5,32.3786797 L16.5,16.5 L7.5,16.5 Z"></path>
                    </g>
                    <circle id="Oval-Copy-2" fill="#FFFFFF" cx="12" cy="12" r="6"></circle>
                </g>
            </g>
        </g>
    </g>
</svg>

<svg width="96" height="96" viewBox="0 0 96 96" xmlns="http://www.w3.org/2000/svg" xmlns:xlink="http://www.w3.org/1999/xlink"><title>Artboard 2</title><defs><path d="M3 0h37.754a3 3 0 0 1 2.12.878l16.247 16.243A3 3 0 0 1 60 19.243V78a3 3 0 0 1-3 3H3a3 3 0 0 1-3-3V3a3 3 0 0 1 3-3z" id="a"/><circle id="c" cx="12" cy="12" r="12"/><path id="d" d="M6 15h12v21l-6-6-6 6z"/></defs><g fill="none" fill-rule="evenodd"><g transform="translate(18)"><mask id="b" fill="#fff"><use xlink:href="#a"/></mask><use fill="#FFF" xlink:href="#a"/><path stroke="#FFF" stroke-width="3" d="M3 1.5A1.5 1.5 0 0 0 1.5 3v75A1.5 1.5 0 0 0 3 79.5h54a1.5 1.5 0 0 0 1.5-1.5V19.243a1.5 1.5 0 0 0-.44-1.06L41.815 1.938a1.5 1.5 0 0 0-1.06-.439H3z"/><rect fill="#DEDEDE" mask="url(#b)" x="9" y="24" width="42" height="3" rx="1.5"/><rect fill="#DEDEDE" mask="url(#b)" x="9" y="15" width="27" height="3" rx="1.5"/><rect fill="#DEDEDE" mask="url(#b)" x="9" y="33" width="42" height="3" rx="1.5"/><rect fill="#DEDEDE" mask="url(#b)" x="9" y="42" width="42" height="3" rx="1.5"/><rect fill="#DEDEDE" mask="url(#b)" x="9" y="51" width="42" height="3" rx="1.5"/><path d="M42 0l18 18H45a3 3 0 0 1-3-3V0z" fill="#DEDEDE" mask="url(#b)"/></g><g transform="translate(36 60)"><use fill="#E98024" xlink:href="#c"/><circle stroke="#E98024" stroke-width="3" cx="12" cy="12" r="10.5"/><use fill="#E98024" xlink:href="#d"/><path stroke="#E98024" stroke-width="3" d="M7.5 16.5v15.879l4.5-4.5 4.5 4.5V16.5h-9z"/><circle fill="#FFF" cx="12" cy="12" r="6"/></g></g></svg>
